!!!OTL: Nanshan zhuzi
!!!ARE: Asia, China, Shanxi Ziyang
!! I, 81
!!!SCT: C1409
!!!YEM: Copyright 1995, estate of Helmut Schaffrath.
**kern
*ICvox
*Ivox
*M2/4
*k[f#c#]
*D:
{16a
16b
4dd
8ee
=1
8a
8b
4a
=2
16a
16b
4dd
8b
=3
8dd
8b
4a}
=4
{8b
16b
16ee
8b
8dd
=5
4.ee
16dd
16b
=6
8ee
16ee
16dd
16b
16dd
8a
=7
4.b
8r}
=8
{16b
16dd
8a
4cc#
=9
8b
8a
8e
8r
=10
8a
4e
8g
=11
8b
8cc#
8.b
16a
=12
2a}
==
!!!AGN: Shange. Biaoda aiqing
!!!ONB: ESAC (Essen Associative Code) Database: HUANG
!!!AMT: simple duple
!!!AIN: vox
!!!EED: Helmut Schaffrath
!!!EEV: 1.0
*-
